src/topics/icons/jetbrains.svg

<svg height="214" preserveAspectRatio="xMidYMid" viewBox="0 0 256 214" width="256" xmlns="http://www.w3.org/2000/svg" xmlns:xlink="http://www.w3.org/1999/xlink"><linearGradient id="a" x1="5.603498%" x2="91.025171%" y1="10.33402%" y2="83.140865%"><stop offset="0" stop-color="#aa4a9b"/><stop offset="1" stop-color="#f05922"/></linearGradient><linearGradient id="b" x1="1.962864%" x2="97.365862%" y1="101.045045%" y2="13.164068%"><stop offset="0" stop-color="#ffe42e"/><stop offset="1" stop-color="#ed417c"/></linearGradient><linearGradient id="c" x1="12.266809%" x2="99.471675%" y1="92.394069%" y2="-3.944533%"><stop offset="0" stop-color="#ffe42e"/><stop offset="1" stop-color="#f05922"/></linearGradient><path d="m145.91776 103.058478-112.2906034-97.65179384c-5.5651867-5.23653336-13.6557005-6.7843549-20.7607815-3.97181015-7.10508112 2.81254475-11.9441568 9.47854139-12.41738122 17.10537839-.47322442 7.6268371 3.50469327 14.8399041 10.20759402 18.5091964l126.3022921 78.4081192.573368.358355c3.522872 2.315595 8.255884 1.336905 10.571479-2.185967 2.315595-3.522871 1.336905-8.255883-2.185967-10.571478z" fill="url(#a)"/><path d="m255.789466 118.664847c-.394697-9.862306-5.974503-18.7808738-14.670834-23.4493529-8.696331-4.6684792-19.212892-4.3909756-27.650915.7296328l-157.6762909 89.7500611-.2687664.143342c-4.6538175 1.96843-7.9039771 6.270117-8.5261752 11.284656s1.478092 9.980103 5.5097114 13.026212 9.3820691 3.709986 14.0358863 1.741556l171.7954858-66.295713.430026-.179178c10.685863-4.508525 17.46446-15.161627 17.021872-26.751216z" fill="url(#b)"/><path d="m128.806299 114.490009c1.827995-3.545266.618035-7.90023-2.776795-9.994413-3.39483-2.094182-7.82968-1.221356-10.177745 2.003092l-66.5644799 84.464322-.1433421.286684c-2.8960288 4.395102-3.1105789 10.035192-.5568173 14.637605 2.5537615 4.602413 7.4529488 7.40502 12.7147564 7.273547 5.2618077-.131473 10.0149154-3.175255 12.3356392-7.899464l54.7029217-90.018827c.169579-.241715.325123-.492978.465862-.752546z" fill="url(#c)"/><path d="m81.718425 63.782747h91.416413v91.416413h-91.416413z"/><path d="m116.048717 106.67677-2.34709-3.403279c1.909451-.711127 3.145575-2.568928 3.063937-4.6048646.059942-1.2925379-.420387-2.5517791-1.325914-3.4760455-1.338364-1.1627377-3.088576-1.7375305-4.855713-1.5946806h-7.04168.071671v14.8717407h4.121085v-4.515275h1.791776l3.010184 4.515275h2.756513l-.015096.035836h4.31818l1.057148-2.687664h5.787437l1.057148 2.687664h4.425687l-6.342888-15.0150833h-3.977742zm-26.4464773 31.375094h34.2766753v5.715765h-34.2766753zm-.3762729-50.2055648 2.6518285-2.5084864c.5178344.8076689 1.3896593 1.3201156 2.3472266 1.3796675.5104052-.0239837.9862904-.2647404 1.3079877-.6617285.3216973-.3969882.4585999-.9124376.3762817-1.4167317v-9.4247419h4.1031667v9.4426597c.117046 1.5414136-.4156574 3.0615682-1.4692559 4.1927559-1.1035099 1.0313557-2.5763818 1.5739927-4.0852493 1.5050919-2.0557754.1013747-4.023735-.8421676-5.231986-2.5084865zm11.7361332-12.632021h11.986981v3.4939633h-7.901732v2.2755555h7.167104v3.2610324h-7.167104v2.3651444h8.009239v3.583552h-12.094488v-14.9075765zm17.398145 3.6193876h-4.443605v-3.5835521h13.04413v3.5835521h-4.461522v11.288189h-4.121085v-11.288189zm-28.7580053 14.7642345h7.6329659c1.4781879-.1167799 2.9419624.3603978 4.0673314 1.3259142.629059.6457185.971384 1.5176793.949641 2.4188977.030662 1.4839988-.893935 2.8203308-2.2934728 3.3147858 1.7311578.307485 2.9835258 1.825507 2.9564308 3.583552 0 2.56224-2.078461 4.103167-5.6440949 4.103167h-7.6867191v-14.7463167zm8.600525 4.6048644c0-.824217-.6629572-1.272161-1.7917761-1.272161h-2.7055818v2.615993h2.5980753c1.2542432 0 1.9709536-.4300263 1.9709536-1.2900788zm-1.4334209 4.2285913h-3.1535258v2.741417h3.1893614c1.2721609 0 1.9709536-.483779 1.9709536-1.361749.0179177-.895888-.6092039-1.379668-2.0067892-1.379668zm13.6533332-1.666352c.543868.134714 1.119441.007258 1.555589-.344475.436148-.351732.682649-.8872379.666213-1.4473007.017996-.5640982-.23084-1.1037052-.671551-1.4562738s-1.021779-.4768855-1.568169-.3355022h-2.723499v3.5835517zm14.764235 1.827612-1.666352-4.2106737-1.68427 4.2106737zm7.220857-8.9947157h4.121085v14.9075767h-4.121085zm5.160315 0h3.852318l6.127874 7.8838147v-7.8838147h4.08525v14.9075767h-3.583552l-6.378723-8.170499v8.170499h-4.085249v-14.9075767zm14.31629 12.6857747 2.293474-2.741418c1.359527 1.134163 3.067481 1.766738 4.837795 1.791776 1.128819 0 1.791776-.376273 1.791776-1.021312s-.483779-.949641-2.526404-1.451339c-3.171444-.71671-5.626177-1.612598-5.626177-4.6586173 0-2.7593351 2.185967-4.7661243 5.769519-4.7661243 2.211272-.0871836 4.382049.6110197 6.127874 1.9709537l-2.060542 2.9205949c-1.206372-.9093561-2.664842-1.4226374-4.174839-1.4692564-1.003394 0-1.487174.4121085-1.487174.9496413 0 .6808749.519615.9854768 2.598076 1.4513386 3.404374.7525455 5.536587 1.7917765 5.536587 4.6406995 0 3.04602-2.400979 4.855713-6.020367 4.855713-2.577741.07545-5.092286-.805279-7.059598-2.47265z" fill="#fff"/></svg>

<?xml version="1.0" encoding="UTF-8" standalone="no"?>
<svg width="256px" height="214px" viewBox="0 0 256 214" version="1.1" xmlns="http://www.w3.org/2000/svg" xmlns:xlink="http://www.w3.org/1999/xlink" preserveAspectRatio="xMidYMid">
    <defs>
        <linearGradient x1="5.60349836%" y1="10.3340199%" x2="91.0251713%" y2="83.140865%" id="linearGradient-1">
            <stop stop-color="#AA4A9B" offset="0%"></stop>
            <stop stop-color="#F05922" offset="100%"></stop>
        </linearGradient>
        <linearGradient x1="1.96286404%" y1="101.045045%" x2="97.3658616%" y2="13.1640678%" id="linearGradient-2">
            <stop stop-color="#FFE42E" offset="0%"></stop>
            <stop stop-color="#ED417C" offset="100%"></stop>
        </linearGradient>
        <linearGradient x1="12.2668091%" y1="92.3940687%" x2="99.4716753%" y2="-3.94453335%" id="linearGradient-3">
            <stop stop-color="#FFE42E" offset="0%"></stop>
            <stop stop-color="#F05922" offset="100%"></stop>
        </linearGradient>
    </defs>
	<g>
		<path d="M145.91776,103.058478 L33.6271566,5.40668416 C28.0619699,0.170150795 19.9714561,-1.37767074 12.8663751,1.43487401 C5.76129398,4.24741876 0.922218296,10.9134154 0.44899388,18.5402524 C-0.0242305364,26.1670895 3.95368715,33.3801565 10.6565879,37.0494488 L136.95888,115.457568 L137.532248,115.815923 C141.05512,118.131518 145.788132,117.152828 148.103727,113.629956 C150.419322,110.107085 149.440632,105.374073 145.91776,103.058478 L145.91776,103.058478 Z" fill="url(#linearGradient-1)"></path>
		<path d="M255.789466,118.664847 C255.394769,108.802541 249.814963,99.8839732 241.118632,95.2154941 C232.422301,90.5470149 221.90574,90.8245185 213.467717,95.9451269 L55.7914261,185.695188 L55.5226597,185.83853 C50.8688422,187.80696 47.6186826,192.108647 46.9964845,197.123186 C46.3742864,202.137725 48.4745765,207.103289 52.5061959,210.149398 C56.5378153,213.195507 61.888265,213.859384 66.5420822,211.890954 L238.337568,145.595241 L238.767594,145.416063 C249.453457,140.907538 256.232054,130.254436 255.789466,118.664847 L255.789466,118.664847 Z" fill="url(#linearGradient-2)"></path>
		<path d="M128.806299,114.490009 C130.634294,110.944743 129.424334,106.589779 126.029504,104.495596 C122.634674,102.401414 118.199824,103.27424 115.851759,106.498688 L49.2872791,190.96301 L49.143937,191.249694 C46.2479082,195.644796 46.0333581,201.284886 48.5871197,205.887299 C51.1408812,210.489712 56.0400685,213.292319 61.3018761,213.160846 C66.5636838,213.029373 71.3167915,209.985591 73.6375153,205.261382 L128.340437,115.242555 C128.510016,115.00084 128.66556,114.749577 128.806299,114.490009 L128.806299,114.490009 Z" fill="url(#linearGradient-3)"></path>
		<rect fill="#000000" x="81.7184252" y="63.7827472" width="91.4164129" height="91.4164129"></rect>
		<path d="M116.048717,106.67677 L113.701627,103.273491 C115.611078,102.562364 116.847202,100.704563 116.765564,98.6686264 C116.825506,97.3760885 116.345177,96.1168473 115.43965,95.1925809 C114.101286,94.0298432 112.351074,93.4550504 110.583937,93.5979003 L103.542257,93.5979003 L103.613928,93.5979003 L103.613928,108.469641 L107.735013,108.469641 L107.735013,103.954366 L109.526789,103.954366 L112.536973,108.469641 L115.293486,108.469641 L115.27839,108.505477 L119.59657,108.505477 L120.653718,105.817813 L126.441155,105.817813 L127.498303,108.505477 L131.92399,108.505477 L125.581102,93.4903937 L121.60336,93.4903937 L116.048717,106.67677 Z M89.6022397,138.051864 L123.878915,138.051864 L123.878915,143.767629 L89.6022397,143.767629 L89.6022397,138.051864 Z M89.2259668,87.8462992 L91.8777953,85.3378128 C92.3956297,86.1454817 93.2674546,86.6579284 94.2250219,86.7174803 C94.7354271,86.6934966 95.2113123,86.4527399 95.5330096,86.0557518 C95.8547069,85.6587636 95.9916095,85.1433142 95.9092913,84.6390201 L95.9092913,75.2142782 L100.012458,75.2142782 L100.012458,84.6569379 C100.129504,86.1983515 99.5968006,87.7185061 98.5432021,88.8496938 C97.4396922,89.8810495 95.9668203,90.4236865 94.4579528,90.3547857 C92.4021774,90.4561604 90.4342178,89.5126181 89.2259668,87.8462992 Z M100.9621,75.2142782 L112.949081,75.2142782 L112.949081,78.7082415 L105.047349,78.7082415 L105.047349,80.983797 L112.214453,80.983797 L112.214453,84.2448294 L105.047349,84.2448294 L105.047349,86.6099738 L113.056588,86.6099738 L113.056588,90.1935258 L100.9621,90.1935258 L100.9621,75.2859493 L100.9621,75.2142782 Z M118.360245,78.8336658 L113.91664,78.8336658 L113.91664,75.2501137 L126.96077,75.2501137 L126.96077,78.8336658 L122.499248,78.8336658 L122.499248,90.1218548 L118.378163,90.1218548 L118.378163,78.8336658 L118.360245,78.8336658 Z M89.6022397,93.5979003 L97.2352056,93.5979003 C98.7133935,93.4811204 100.177168,93.9582981 101.302537,94.9238145 C101.931596,95.569533 102.273921,96.4414938 102.252178,97.3427122 C102.28284,98.826711 101.358243,100.163043 99.9587052,100.657498 C101.689863,100.964983 102.942231,102.483005 102.915136,104.24105 C102.915136,106.80329 100.836675,108.344217 97.2710411,108.344217 L89.584322,108.344217 L89.584322,93.5979003 L89.6022397,93.5979003 Z M98.2027647,98.2027647 C98.2027647,97.3785477 97.5398075,96.9306037 96.4109886,96.9306037 L93.7054068,96.9306037 L93.7054068,99.5465967 L96.3034821,99.5465967 C97.5577253,99.5465967 98.2744357,99.1165704 98.2744357,98.2565179 L98.2027647,98.2027647 Z M96.7693438,102.431356 L93.615818,102.431356 L93.615818,105.172773 L96.8051794,105.172773 C98.0773403,105.172773 98.776133,104.688994 98.776133,103.811024 C98.7940507,102.915136 98.1669291,102.431356 96.7693438,102.431356 L96.7693438,102.431356 Z M110.422677,100.765004 C110.966545,100.899718 111.542118,100.772262 111.978266,100.420529 C112.414414,100.068797 112.660915,99.5332911 112.644479,98.9732283 C112.662475,98.4091301 112.413639,97.8695231 111.972928,97.5169545 C111.532217,97.1643859 110.951149,97.040069 110.404759,97.1814523 L107.68126,97.1814523 L107.68126,100.765004 L110.422677,100.765004 Z M125.186912,102.592616 L123.52056,98.3819423 L121.83629,102.592616 L125.186912,102.592616 Z M132.407769,93.5979003 L136.528854,93.5979003 L136.528854,108.505477 L132.407769,108.505477 L132.407769,93.5979003 Z M137.568084,93.5979003 L141.420402,93.5979003 L147.548276,101.481715 L147.548276,93.5979003 L151.633526,93.5979003 L151.633526,108.505477 L148.049974,108.505477 L141.671251,100.334978 L141.671251,108.505477 L137.586002,108.505477 L137.586002,93.5979003 L137.568084,93.5979003 Z M151.884374,106.283675 L154.177848,103.542257 C155.537375,104.67642 157.245329,105.308995 159.015643,105.334033 C160.144462,105.334033 160.807419,104.95776 160.807419,104.312721 C160.807419,103.667682 160.32364,103.36308 158.281015,102.861382 C155.109571,102.144672 152.654838,101.248784 152.654838,98.2027647 C152.654838,95.4434296 154.840805,93.4366404 158.424357,93.4366404 C160.635629,93.3494568 162.806406,94.0476601 164.552231,95.4075941 L162.491689,98.328189 C161.285317,97.4188329 159.826847,96.9055516 158.31685,96.8589326 C157.313456,96.8589326 156.829676,97.2710411 156.829676,97.8085739 C156.829676,98.4894488 157.349291,98.7940507 159.427752,99.2599125 C162.832126,100.012458 164.964339,101.051689 164.964339,103.900612 C164.964339,106.946632 162.56336,108.756325 158.943972,108.756325 C156.366231,108.831775 153.851686,107.951046 151.884374,106.283675 L151.884374,106.283675 Z" fill="#FFFFFF"></path>
	</g>
</svg>
